img/calculator.svg

<svg xmlns='http://www.w3.org/2000/svg' width='16' height='16' viewBox='0 0 16 16'><path d='M13 14H3V2h10v12zM12 3H4v3h8V3zM5 8H4v1h1V8zm0 2H4v1h1v-1zm0 2H4v1h1v-1zm2-4H6v1h1V8zm0 2H6v1h1v-1zm0 2H6v1h1v-1zm2-4H8v1h1V8zm0 2H8v1h1v-1zm0 2H8v1h1v-1zm3-4h-2v1h2V8zm0 2h-2v1h2v-1zm0 2h-2v1h2v-1z'/></svg>

<svg xmlns='http://www.w3.org/2000/svg' width='16' height='16' viewBox='0 0 16 16'><path d='M13,14H3V2h10V14z M12,3H4v3h8V3z M5,8H4v1h1V8z M5,10H4v1h1V10z M5,12H4v1h1V12z M7,8H6v1h1V8z M7,10H6v1h1V10z M7,12H6v1h1V12z M9,8H8v1h1V8z M9,10H8v1h1V10z M9,12H8v1h1V12z M12,8h-2v1h2V8z M12,10h-2v1h2V10z M12,12h-2v1h2V12z'/></svg>
